X: 21373
M: C
L: 1/8
K: D
gfed eBBd | FD F/G/A d2d :: f |\
dg f/g/a beef | dg f/g/a fdec |
dBAF E>FGB | FD F/G/A d2df |\
dg f/g/a beef | dg f/g/a fdec |\
dBAF E>FGB | AF A/B/c d2d |]


